X: 102
T:Fram Apon Him
% Nottingham Music Database
S:Peter Kennedy, via EF
M:4/4
K:D
M:6/8
P:A
A/2G/2|"D"F2A "A7"d2e|"D"fgf e2f|"G"g2f e2c|"Em"d2c "A7"B2A|
"D"F2A "A7"d2e|"D"fgf "G"e2g|"D"fef "A7"gec|"D"d3 d2:|
P:B
A/2G/2|"D"F2A d2A|"G"BAG "D"F2D|"G"GBG "D"AFA|"Em"E2E "A7"E2D|
"D"F2A d2A|"G"BAG "D"F2g|"D"fef "A7"gec|"D"d3 d2:|<end>
<start>
